X: 1722
T: Sene Üç Yüz Kırk Bir
C: Sabahattin Âli
O: Turkey
F: http://compmusic.upf.edu/node/140
N: muhayyerkurdi--turku--sofyan--eskiya_dunyaya--ordu
N: makam= muhayyerkurdi
N: form= turku
N: usul= sofyan = 4/4
M: 4/4
L: 1/16
K: C _B   
Q: 1/4=102
%%MIDI tuningsystem comma53
z4 g2a2 a4 a4  | g4 a12  | z2g4a2 b4 b2a2  | a16  | \
w:  Se ne  üç  yüz   |  kırk  bir   |  nef si me  uy  |  dum    | 
z4 g2a2 b4 b2a2  | a2g2 g2f2 f2e2 e4  | 
w:  Se beb_ ol du   |  şey *  tan   | 
e2z2 g2a2 g2f2 f2e2  | e12 z4  | z4 d2e2 e4 e2f2  | \
w:  *  bir  ca na  *  kıy  |  dım    |  Ka til  def te  | 
d4 a12  | g4 a2g2 g2f2 f2e2  | 
w:  ri ne   |  a dı *  mı  *  koy  | 
e2d2 d2c2 d2e2 f4  | e2f4f2 f2e2 e4  | \
w:  dum    |  Eş *  kı yâ  *  dün  | 
e2d2 d4 d2c2 e2d2  | c2c4A2 B4 {c}B2A2  | 
w:  ya *  ya  a nam   |  hü küm *  dar  *  ol  | 
A16  | z4 d2e2 e4 e2f2  | d4 a12  | g4 a2g2 g2f2 f2e2  | \
w:  maz    |  Ka til  def te  |  ri ne   |  a dı *  mı  *  koy  | 
e2d2 d2c2 d2e2 f4  | 
w:  dum    | 
e2f4f2 f2e2 e4  | e2d2 d4 d2c2 e2d2  | \
w:  Eş *  kı yâ  *  dün  |  ya *  ya  a nam   | 
c2c4A2 B4 {c}B2A2  | A16  | z4 g2a2 a4 a4  | 
w:  hü küm *  dar  *  ol  |  maz    |  Se ne  üç  yüz   | 
g4 a12  | z2g4a2 b4 b2a2  | a16  | z4 g2a2 b4 b2a2  | \
w:  kırk  bir   |  nef si me  uy  |  dum    |  Se beb_ ol du   | 
a2g2 g2f2 f2e2 e4  | 
w:  şey *  tan   | 
e2z2 g2a2 g2f2 f2e2  | e12 z4  | z4 d2e2 e4 e2f2  | \
w:  *  bir  ca na  *  kıy  |  dım    |  Ka til  def te  | 
d4 a12  | g4 a2g2 g2f2 f2e2  | 
w:  ri ne   |  a dı *  mı  *  koy  | 
e2d2 d2c2 d2e2 f4  | e2f4f2 f2e2 e4  | \
w:  dum    |  Eş *  kı yâ  *  dün  | 
e2d2 d4 d2c2 e2d2  | c2c4A2 B4 {c}B2A2  | 
w:  ya *  ya  a nam   |  hü küm *  dar  *  ol  | 
A16  | z4 d2e2 e4 e2f2  | d4 a12  | g4 a2g2 g2f2 f2e2  | \
w:  maz    |  Ka til  def te  |  ri ne   |  a dı *  mı  *  koy  | 
e2d2 d2c2 d2e2 f4  | 
w:  dum    | 
e2f4f2 f2e2 e4  | e2d2 d4 d2c2 e2d2  | \
w:  Eş *  kı yâ  *  dün  |  ya *  ya  a nam   | 
c2c4A2 B4 {c}B2A2  | A16  | |


